img/4-5mulheres.svg

<svg fill="none" height="73" viewBox="0 0 33 73" width="33" xmlns="http://www.w3.org/2000/svg"><g fill="#fff"><path d="m23.2892 19.4183c-.0869-.3013-.2705-.5657-.5225-.7524-.252-.1866-.5584-.2852-.872-.2805h-11.6375c-.31218.0009-.61593.1016-.86681.2875-.25089.1858-.43575.447-.52758.7454l-8.79698 31.1251c-.06839618.2175-.0837698.4482-.044837.6728.0389327.2246.131042.4366.268635.6184.137215.1807.314146.3275.517126.429.202976.1015.426576.155.653506.1563h5.88761v18.9367c-.00003.3852.15177.7548.42248 1.0287s.6385.4301 1.0236.4346h14.56405c.1914 0 .3808-.0379.5574-.1117.1766-.0737.3368-.1818.4713-.3179s.2407-.2975.3123-.475c.0717-.1774.1074-.3673.1051-.5587v-18.9367h5.836c.3851-.0045.7528-.1607 1.0236-.4346.2707-.274.4225-.6436.4224-1.0287.0166-.1372.0166-.2759 0-.4132zm0 30.0922c-.3852 0-.7548.1518-1.0287.4225s-.4301.6385-.4346 1.0236v18.9367h-4.2866v-18.9367c-.0046-.3851-.1607-.7529-.4346-1.0236-.274-.2707-.6436-.4225-1.0287-.4225-.3835 0-.7514.1524-1.0225.4236-.2712.2712-.4236.639-.4236 1.0225v18.9367h-4.3727v-18.9367c-.0045-.3851-.1607-.7529-.43459-1.0236-.27393-.2707-.64354-.4225-1.02866-.4225h-5.28508l7.83293-28.2157h9.4684l7.8673 28.2157z"/><path d="m16.0766 15.1838c1.5023.0034 2.9718-.4389 4.2226-1.2711 1.2507-.8321 2.2265-2.0166 2.8037-3.4036.5773-1.38689.7301-2.91391.4391-4.38773s-1.0127-2.82818-2.0738-3.89165c-1.061-1.06347-2.4137-1.788242-3.8869-2.082576-1.4731-.294333-3.0005-.14499667-4.3887.429108-1.3883.574108-2.575 1.547168-3.40997 2.796018-.83498 1.24886-1.28067 2.71735-1.28068 4.21963 0 2.01052.79749 3.9389 2.21755 5.3622 1.42 1.4233 3.3466 2.2251 5.3571 2.2297zm0-12.05065c.9074-.00319 1.7951.26427 2.5497.76819s1.3417 1.2214 1.6864 2.06075c.3447.83934.4313 1.7624.2487 2.65121-.1826.8888-.6261 1.703-1.2738 2.3384-.6478.6354-1.4702 1.0633-2.3624 1.2289-.8921.1656-1.8133.0614-2.6459-.2993s-1.5388-.9615-2.0282-1.7255c-.4894-.76412-.7398-1.65677-.7193-2.5639 0-1.20537.4789-2.36136 1.3312-3.21368.8523-.85231 2.0083-1.33114 3.2136-1.33114z"/></g></svg>

<svg width="33" height="73" viewBox="0 0 33 73" fill="none" xmlns="http://www.w3.org/2000/svg">
<path d="M23.2892 19.4183C23.2023 19.117 23.0187 18.8526 22.7667 18.6659C22.5147 18.4793 22.2083 18.3807 21.8947 18.3854H10.2572C9.94502 18.3863 9.64127 18.487 9.39039 18.6729C9.1395 18.8587 8.95464 19.1199 8.86281 19.4183L0.06583 50.5434C-0.00256618 50.7609 -0.0179398 50.9916 0.020993 51.2162C0.0599257 51.4408 0.152035 51.6528 0.289628 51.8346C0.426843 52.0153 0.603774 52.1621 0.806754 52.2636C1.00973 52.3651 1.23333 52.4186 1.46026 52.4199H7.34787V71.3566C7.34784 71.7418 7.49964 72.1114 7.77035 72.3853C8.04106 72.6592 8.40885 72.8154 8.79395 72.8199H23.358C23.5494 72.8199 23.7388 72.782 23.9154 72.7082C24.092 72.6345 24.2522 72.5264 24.3867 72.3903C24.5212 72.2542 24.6274 72.0928 24.699 71.9153C24.7707 71.7379 24.8064 71.548 24.8041 71.3566V52.4199H30.6401C31.0252 52.4154 31.3929 52.2592 31.6637 51.9853C31.9344 51.7113 32.0862 51.3417 32.0861 50.9566C32.1027 50.8194 32.1027 50.6807 32.0861 50.5434L23.2892 19.4183ZM23.2892 49.5105C22.904 49.5105 22.5344 49.6623 22.2605 49.933C21.9866 50.2037 21.8304 50.5715 21.8259 50.9566V69.8933H17.5393V50.9566C17.5347 50.5715 17.3786 50.2037 17.1047 49.933C16.8307 49.6623 16.4611 49.5105 16.076 49.5105C15.6925 49.5105 15.3246 49.6629 15.0535 49.9341C14.7823 50.2053 14.6299 50.5731 14.6299 50.9566V69.8933H10.2572V50.9566C10.2527 50.5715 10.0965 50.2037 9.82261 49.933C9.54868 49.6623 9.17907 49.5105 8.79395 49.5105H3.50887L11.3418 21.2948H20.8102L28.6775 49.5105H23.2892Z" fill="white"/>
<path d="M16.0766 15.1838C17.5789 15.1872 19.0484 14.7449 20.2992 13.9127C21.5499 13.0806 22.5257 11.8961 23.1029 10.5091C23.6802 9.12221 23.833 7.59519 23.542 6.12137C23.251 4.64755 22.5293 3.29319 21.4682 2.22972C20.4072 1.16625 19.0545 0.441478 17.5813 0.147144C16.1082 -0.147189 14.5808 0.00214733 13.1926 0.576252C11.8043 1.15036 10.6176 2.12342 9.78263 3.37227C8.94765 4.62113 8.50196 6.08962 8.50195 7.5919C8.50195 9.60242 9.29944 11.5308 10.7195 12.9541C12.1395 14.3774 14.0661 15.1792 16.0766 15.1838ZM16.0766 3.13315C16.984 3.12996 17.8717 3.39742 18.6263 3.90134C19.3809 4.40526 19.968 5.12274 20.3127 5.96209C20.6574 6.80143 20.744 7.72449 20.5614 8.6133C20.3788 9.5021 19.9353 10.3163 19.2876 10.9517C18.6398 11.5871 17.8174 12.015 16.9252 12.1806C16.0331 12.3462 15.1119 12.242 14.2793 11.8813C13.4467 11.5206 12.7405 10.9198 12.2511 10.1558C11.7617 9.39168 11.5113 8.49903 11.5318 7.5919C11.5318 6.38653 12.0107 5.23054 12.863 4.37822C13.7153 3.52591 14.8713 3.04708 16.0766 3.04708V3.13315Z" fill="white"/>
</svg>
